!!!ONB: MCCC : ILB0330_01 : Extracted Monophonic Melody
!!!COM: Beethoven, Ludwig van
!!!OPR: Violin Sonata No.9 in A major
!!!OMV: 1
!!!SCT: Op.47
!!!ODT: 1802///
**kern
*staff1
=1
*clefG2
*k[f#c#g#]
*A:
*M3/4
16e
8.aa
4ff#
4dd
=2
4b
4.ee
8g#
=3
4a
4f#
4g#
=4
4e
4r
4r
=5
2.r
=6
2.r
=7
2.r
=8
4r
4r
16d
8.ff
=9
16g
8.ff
4ee
4r
=10
4r
4aa
16f#
8.aa
=11
4b
4r
4r
=12
4gg#]
4.aa
8cc
=13
4b
8r
16r
16cc#
8.dd
16cc
=14
4b
8r
16r
16cc#
8.dd
16cc
=15
4b-
8r
16r
16cc#
8.dd
16ee
=16
4ff
8r
16r
16ee
16ff
16ee
16ff
16ee
=17
4ff
8r
16r
16ee
16ff
16ee
16ff
16ee
=18
2ff
4ee
=19
*M2/2
2.ff
4a
=20
4g#
4e
4e
4g#
=21
4a
4e
4e
4a
=22
4b
4e
4e
4b
=23
4cc
4a
4a
4cc
=24
4cc
4a
4a
4cc
=25
2r
4r
8r
8d
=26
2.gg[
8gg]
8cc
=27
1ee
=28
1r
=29
1r
=30
2r
4r
4a
=31
4g#
4e
4e
4g#
=32
4a
4e
4e
4a
=33
4a
4e
4e
4a
=34
2b
2r
=35
2b
2r
=36
2cc
2r
=37
1r
=38
2r
4r
4ee
=39
2.ff
4ee
=40
2.ff
4ff
=41
1ff#
=42
1gg
=43
1gg#
=44
4aa
4ee
4cc
4dd
=45
4ee
4cc
4a
4a
=46
4dd
4b
4g#
4g#
=47
8A
8a
8g#
8a
8A
8a
8B
8a
=48
8c
8a
8d
8a
8c
8a
8B
8a
=49
2A
2r
=50
1r
=51
8e
8ee
8dd#
8ee
8e
8ee
8f#
8ee
=52
8g#
8ee
8a
8ee
8b
8ee
8g#
8ee
=53
4e
2e
4e[
=54
4e]
2e
4e
=55
8c
8A
8c
8A
8c
8A
8c
8A
=56
8c
8A
8c
8A
8c
8A
8c
8A
=57
8a
8aa
8gg#
8aa
8a
8aa
8b
8aa
=58
8cc
8aa
8b
8aa
8cc
8aa
8a
8aa
=59
8e
8G#
8B
8G#
8B
8G#
8B
8G#
=60
8B
8G#
8B
8G#
8B
8G#
8B
8G#
=61
8e
8ee
8dd#
8ee
8e
8ee
8f
8ff
=62
8e
8ee
8d
8dd
8c
8cc
8B
8b
=63
2A
2ee
=64
2r
2ff
=65
2ff
2ddd
=66
2r
4r
4b
=67
2cc
2gg
=68
2r
2aa
=69
2aa
2aa
=70
2r
4r
4ee-
=71
2ee
2eee
=72
2r
2eee
=73
2eee
2eee
=74
2r
4gg
4gg
=75
2ff#
2eee-
=76
1eee-[
=77
2eee-]
16eee-
16eee
16ddd#
16eee
16ddd#
16eee
16ccc#
16ddd#
=78
2eee
16eee
16fff
16eee
16fff
16eee
16fff
16eee-
16eee
=79
2eee-
2ee-
=80
1ee-[
=81
2ee-]
16ee-
16ee
16dd#
16ee
16dd#
16ee
16cc#
16dd#
=82
2ee
16ee
16ff
16ee
16ff
16ee
16ff
16ee-
16ee
=83
8ee-
8f#
8e
8e-
8ee
8g
8f#
8e
=84
8ee-
8f#
8e
8e-
8ee
8g
8f#
8e
=85
8ee-
8f#
8e
8e-
8ee
8g
8f#
8e
=86
8ee-
8f#
8e
8e-
8ee
8g
8f#
8e
=87
8ee-
8f#
8e
8e-
8b
8f#
8e
8e-
=88
8b
8f#
8e
8e-
8b
8f#
8e
8e-
=89
8b
8f#
8e
8e-
8b
8f#
8e
8e-
=90
8b
8f#
8e
8e-
8b
8f#
8e
8e-
=91
1b
=92
1a
=93
1g#
=94
1a
=95
1g#
=96
1f#
=97
1g#
=98
2b
2a
=99
1g#
=100
1f#
=101
1g#
=102
4b
4a
2g#
=103
1f#
=104
1f#
=105
1f#
=106
1f#
=107
2f#
2r
=108
1r
=109
1ee
=110
1ee[
=111
2ee]
2ee
=112
2eee
2eee
=113
2eee
2ee
=114
1ee[
=115
2ee]
2ee
=116
2eee
2eee
=117
1eee
=118
2.ddd
4d
=119
2.dd
4a
=120
2b
4r
8b
8b
=121
8f#
8f#
8g
8g
8a
8a
8f#
8f#
=122
2b
4r
4b
=123
2.bb
4ff#
=124
2gg
4r
8g
8g
=125
8e-
8e-
8e
8e
8f#
8f#
8e-
8e-
=126
2g
4r
8gg
8gg
=127
8ee-
8ee-
8ee
8ee
8ff#
8ff#
8ee-
8ee-
=128
8gg
8gg
8aa
8aa
8bb
8bb
8gg
8gg
=129
8ee-
8ee-
8ee
8ee
8ff#
8ff#
8ee-
8ee-
=130
2gg
2eee[
=131
2eee]
2eee[
=132
2eee]
2eee[
=133
4eee]
4ccc
4bb
4aa
=134
8gg
8gg
8aa
8aa
8bb
8bb
8gg
8gg
=135
8aa
8aa
8bb
8bb
8ccc
8ccc
8aa
8aa
=136
8bb
8bb
8ccc
8ccc
8ddd
8ddd
8eee
8eee
=137
8fff
8fff
8ddd
8ddd
8bb
8bb
8ddd
8ddd
=138
8fff
8fff
8ddd
8ddd
8bb
8bb
8ddd
8ddd
=139
8fff
8fff
8ddd
8ddd
8ccc
8ccc
8bb
8bb
=140
1r
=141
2r
8eee
8eee
8eee
8eee
=142
8aaa
8aaa
8aaa
8aaa
8ggg
8ggg
8fff#
8fff#
=143
8aaa
8aaa
8fff#
8fff#
8eee
8eee
8eee-
8eee-
=144
8eee
8eee
8ccc
8ccc
8bb
8bb
8bb-
8bb-
=145
8bb
8bb
8bb-
8bb-
8bb
8bb
8bb
8bb
=146
2ee
2r
=147
1r
=148
1r
=149
1r
=150
1r
=151
2r
2gg
=152
2r
2ff
=153
2r
2ff
=154
2ee
2r
=155
2r
2aa
=156
2r
2bb
=157
2r
4.bb
8ee-
=158
2.ee[
8ee]
8dd#
=159
2.ee[
8ee]
8dd#
=160
2.ee[
8ee]
8ff#
=161
4.gg
8bb-
4.bb
8ddd#
=162
1eee
=163
4ddd
4ccc#
4bb
4ccc#
=164
2ddd
2aa
=165
4bb
12ccc
12bb
12ccc
12bb
12ccc
12bb
8aa
8bb
=166
1ccc
=167
4bb
4aa
4gg#
4aa
=168
2bb
2ee
=169
2ff#
2b
=170
1bb[
=171
4bb]
4aa
4gg
4aa
=172
2bb
2ee
=173
2ff#
2b
=174
8bb
8eee
8eee
8eee
8eee
8eee
8eee
8eee
=175
8eee
8eee
8eee
8eee
8eee
8eee
8eee
8eee
=176
8eee
8eee
8ggg
8ggg
8eee
8eee
8ggg
8ggg
=177
8eee-
8eee-
8fff#
8fff#
8eee-
8eee-
8eee-
8eee-
=178
2eee
2r
=179
2ee
2r
=180
8a
8aa
8gg#
8aa
8ff#
8aa
8ee
8aa
=181
8ee-
8aa
8cc
8ee-
8b
8ee-
8a
8ee-
=182
2g
2r
=183
2ee
2r
=184
8a
8aa
8gg#
8aa
8ff#
8aa
8ee
8aa
=185
8ee-
8aa
8cc
8ee-
8b
8ee-
8a
8ee-
=186
8g
8ee
8e
8f#
8a
8g
8f#
8e
=187
8d#
8f#
8B
8e-
8f#
8b
8a
8f#
=188
8g
8ee
8e
8f#
8a
8g
8f#
8e
=189
8d#
8f#
8B
8e-
8f#
8b
8a
8f#
=190
8g
8ee
8e
8g
8B
8g
8ee
8g
=191
8B
8f#
8ee-
8f#
8B
8f#
8ee-
8f#
=192
2e
2dd[
=193
1dd]
=194
1cc[
=195
1cc]
=196
1r
=197
1r
=198
1r
=199
1r
=200
1r
=201
1r
=202
1r
=203
2r
4r
8r
8ff#
=204
2.gg[
8gg]
8ff#
=205
2.gg[
8gg]
8ff#
=206
2.gg[
8gg]
8aa
=207
4.bb-
8ccc#
4.ddd
8fff#
=208
1ggg[
=209
4ggg]
4fff#
4eee
4fff#
=210
2ggg
2ddd
=211
4eee-
4ddd
4ccc
4ddd
=212
8eee-
8b-
8gg
8b-
8gg
8b-
8gg
8b-
=213
8e-
8b-
8gg
8b-
8gg
8b-
8gg
8b-
=214
8e-
8b-
8gg
8b-
8e-
8b-
8gg
8b-
=215
8e-
8b-
8gg
8b-
8e-
8b-
8gg
8b-
=216
8e-
8b-
8gg
8b-
8gg
8b-
8gg
8b-
=217
8e
8a
8gg
8a
8gg
8a
8gg
8a
=218
8d
8a
8gg
8a
8d
8a
8ff
8a
=219
8G
8g
8ff
8g
8G
8g
8ff
8g
=220
8c
8g
8ff
8g
8c
8g
8ee-
8g
=221
8c
8f
8ee-
8f
8ee-
8f
8ee-
8f
=222
8B-
8f
8ee-
8f
8B-
8f
8cc#
8f
=223
8B-
8e-
8cc#
8e-
8B-
8e-
8cc#
8e-
=224
8G#
8e-
8cc#
8e-
8G#
8e-
8cc
8e-
=225
8G#
8g#
8cc
8g#
8cc
8g#
8cc
8g#
=226
8c#
8g#
8b-
8g#
8c
8g
8b-
8g
=227
8c
8g
8g#
8f
8g#
8f
8c#
8G#
=228
4.G
8B
2c[
=229
4.c]
8b
2cc[
=230
4.cc]
8bb
2ccc
=231
1r
=232
4r
8r
8e
2f[
=233
4.f]
8ee
2ff[
=234
4.ff]
8eee
2fff
=235
1r
=236
4r
8A
8c
8B-
8c#
8c
8e-
=237
8c#
8f
8A
8c
8B-
8c#
8c
8e-
=238
8c#
8f
8A
8c
8B-
8c#
8c
8e-
=239
8c#
8f
8d
8f
8e-
8g
8f
8g#
=240
8g
4b-
8d
2e-[
=241
4.e-]
8dd
2ee-[
=242
4.ee-]
8ddd
2eee-
=243
1r
=244
4r
8r
8G
2G#
=245
4r
8r
8ee
2ff
=246
4r
8r
8aa
2bb-
=247
4r
8r
8ee
2eee
=248
4fff
8ccc#
8bb-
8ccc
8gg#
8bb-
8gg
=249
8gg#
8ee#
8ff#
8ee-
8ff
8cc#
8ee-
8cc
=250
8cc#
8b-
8ccc
8gg#
8bb-
8gg
8gg#
8ff
=251
8gg
8ee-
8ff
8cc#
8ee-
8cc
8cc#
8b-
=252
8cc
4.g#
2r
=253
4r
8r
8ccc
2ccc#[
=254
2ccc#]
2aa#
=255
4r
8r
8bb
2ccc[
=256
4ccc]
4gg#
2r
=257
2r
4r
4f
=258
2f#
2r
=259
2g#
4r
8r
8b#
=260
2.cc#[
8cc#]
8b#
=261
2.cc#[
8cc#]
8b#
=262
2.cc#[
8cc#]
8ee
=263
4.ff
8gg
4.gg#
8bb#
=264
1ccc#
=265
4ccc
4bb-
4gg#
4bb-
=266
2ccc
2ff
=267
2gg
2cc
=268
2ff
2r
=269
1r
=270
2r
2ff[
=271
4ff]
4ee
4dd
4ee
=272
2ff
4r
4f
=273
2c
4r
4c
=274
2f
4r
4ff
=275
2cc
4r
4cc
=276
8ff
8gg#
8ff##
8gg#
8ff
8gg#
8ee-
8gg#
=277
8dd
8ff
8ee-
8ff
8dd
8ff
8cc
8ff
=278
8b
8dd
8cc
8dd
8b
8dd
8g#
8b
=279
8g
8b
8f
8b
8e-
8cc
8d
8dd
=280
2ee-
4r
4cc
=281
2g
4r
4g
=282
2cc
4r
4ccc
=283
2gg
4r
4gg
=284
8ee-
8ee-
8dd
8ee-
8cc
8ee-
8b-
8ee-
=285
8a
8cc
8b-
8cc
8a
8cc
8g
8cc
=286
8f#
8a
8g
8a
8f#
8a
8e-
8f#
=287
8d
8f#
8c
8f#
8B-
8g
8A
8a
=288
2b-
4r
4g
=289
2d
4r
4dd
=290
2gg
2ggg[
=291
4ggg]
4eee
4fff
4ggg
=292
2aaa
4r
4dd
=293
2a
4r
4aa
=294
2ddd
2ddd[
=295
4ddd]
4bb
4ccc
4ddd
=296
2eee
4r
4aa
=297
8ee
8ee
8ff#
8ff#
8gg#
8gg#
8ee
8ee
=298
8aa
8aa
8bb
8bb
8ccc
8ccc
8aa
8aa
=299
8eee
8eee
8eee
8eee
8fff#
8fff#
8ggg#
8ggg#
=300
8aaa
8aaa
8ggg
8ggg
8fff
8fff
8eee
8eee
=301
8ddd
8ddd
8ccc
8ccc
8bb
8bb
8aa
8aa
=302
2eee
2ee
=303
2ff
2eee-
=304
2eee
2ee
=305
2ff
2eee-
=306
2eee
2ee[
=307
2ee]
2ee-
=308
2dd
2d[
=309
2d]
2c
=310
1g#
=311
1g#[
=312
2g#]
2r
=313
1r
=314
1r
=315
1r
=316
8r
8A
8c#
8e
8a
8cc#
8ee
8aa
=317
8r
8B
8d
8g#
8b
8dd
8gg#
8bb
=318
8r
8c#
8e
8g#
8cc#
8ee
8gg
8ccc#
=319
8r
8d
8f
8a
8dd
8ff
8aa
8ddd
=320
8eee
8ggg
8eee
8ddd
8ccc#
8eee
8bb-
8aa
=321
8gg
8bb-
8gg
8ff
8ee
8gg
8ee
8dd
=322
8cc#
8ee
8b-
8a
8g
8ccc#
8gg
8ff
=323
8ee
8gg
8ee
8dd
8cc#
8gg
8ee
8dd
=324
1cc#[
=325
1cc#]
=326
1r
=327
1r
=328
1r
=329
1r
=330
2r
4r
4d
=331
4c#
4A
4A
4c#
=332
4d
4A
4A
4d
=333
4d
4A
4A
4d
=334
2e
2r
=335
2e
2r
=336
2f
2r
=337
1r
=338
1r
=339
2r
4r
4dd
=340
2.ee-
4dd
=341
2.ee-
4ee
=342
2.ff
4ee
=343
2.ff
4ee
=344
2.ff
4ee
=345
4ff
4ee
4ff
4ee
=346
2.ff
4a
=347
4g#
4e
4e
4g#
=348
4a
4e
4e
4a
=349
4b
4e
4e
4b
=350
4cc
4a
4a
4cc
=351
4cc
4a
4a
4cc
=352
2.dd[
8dd]
8d
=353
2.gg[
8gg]
8g
=354
1ee[
=355
1ee]
=356
1r
=357
1r
=358
2.ee[
8ee]
8e
=359
1aa
=360
2ff
2r
=361
1r
=362
1bb
=363
1eee
=364
2ccc
2aaa[
=365
2aaa]
2aaa[
=366
4aaa]
4eee
4ccc
4ccc
=367
4eee
4ddd
4bb
4bb
=368
8aa
8a
8g#
8a
8A
8a
8B
8a
=369
8c
8a
8d
8a
8c
8a
8B
8a
=370
2A
2r
=371
1r
=372
8e
8ee
8dd#
8ee
8e
8ee
8f#
8ee
=373
8g#
8ee
8a
8ee
8b
8ee
8g#
8ee
=374
4e
2e
4e[
=375
4e]
2e
4e
=376
8a
8A
8c
8A
8c
8A
8c
8A
=377
8c
8A
8c
8A
8c
8A
8c
8A
=378
8a
8aa
8gg#
8aa
8a
8aa
8b
8aa
=379
8cc
8aa
8b
8aa
8cc
8aa
8a
8aa
=380
8e
8G#
8B
8G#
8B
8G#
8B
8G#
=381
8B
8G#
8B
8G#
8B
8G#
8B
8G#
=382
8e
8ee
8dd#
8ee
8e
8ee
8f
8ff
=383
8e
8ee
8d
8dd
8c
8cc
8B
8b
=384
2A
2ee
=385
2r
2ff
=386
2ff
2ddd
=387
2r
4r
4b
=388
2cc
2gg
=389
2r
2gg
=390
2ff
2aa
=391
2gg
2bb-
=392
2aa
2ccc
=393
2bb
4eee
4eee
=394
4eee
4eee
4eee
4eee
=395
4eee
8ddd
8ccc
4bb
4aa
=396
2gg#
2ggg#
=397
1ggg#[
=398
2ggg#]
16ggg#
16aaa
16ggg#
16aaa
16ggg#
16aaa
16fff#
16ggg#
=399
2aaa
16aaa
16bbb
16aaa
16bbb
16aaa
16bbb
16ggg#
16aaa
=400
2ggg#
2gg#
=401
1gg#[
=402
2gg#]
16gg#
16aa
16gg#
16aa
16gg#
16aa
16ff#
16gg#
=403
2aa
16aa
16bb
16aa
16bb
16aa
16bb
16gg#
16aa
=404
8gg#
8g#
8f#
8e
8ee-
8a
8g#
8f#
=405
8ee
8g#
8f#
8e
8ee-
8a
8g#
8f#
=406
8ee
8g#
8f#
8e
8ee-
8a
8g#
8f#
=407
8ee
8g#
8f#
8e
8ee-
8a
8g#
8f#
=408
8ee
8g#
8f#
8e
8ee
8g#
8f#
8e
=409
8ee
8g#
8f#
8e
8ee
8g#
8f#
8e
=410
8ee
8g#
8f#
8e
8ee
8g#
8f#
8e
=411
8ee
8g#
8f#
8e
8ee
8g#
8f#
8e
=412
1ee
=413
1dd
=414
1cc#
=415
1dd
=416
1cc#
=417
1b
=418
2cc#
8dd
8cc#
8b
8cc#
=419
2ee
2dd
=420
1cc#
=421
1b
=422
1cc#
=423
4ee
4dd
2cc#
=424
1b
=425
1b
=426
1b
=427
1b
=428
2b
2r
=429
1r
=430
1a
=431
1a[
=432
2a]
2a
=433
2aa
2aa
=434
2aa
2a
=435
1a[
=436
2a]
2a
=437
2aa
2aa
=438
1aa
=439
2.gg
4g
=440
2.gg
4dd
=441
2ee
4r
8e
8e
=442
8B
8B
8c
8c
8d
8d
8B
8B
=443
2e
4r
4e
=444
2.ee
4b
=445
2cc
4r
8c
8c
=446
8G#
8G#
8A
8A
8B
8B
8G#
8G#
=447
2c
4r
8cc
8cc
=448
8g#
8g#
8a
8a
8b
8b
8g#
8g#
=449
8cc
8cc
8dd
8dd
8ee
8ee
8cc
8cc
=450
8g#
8g#
8a
8a
8b
8b
8g#
8g#
=451
2cc
2aa[
=452
2aa]
2aa[
=453
2aa]
2aa[
=454
4aa]
4fff
4eee
4ddd
=455
8ccc
8ccc
8ddd
8ddd
8eee
8eee
8ccc
8ccc
=456
8ddd
8ddd
8eee
8eee
8fff
8fff
8ddd
8ddd
=457
8eee
8eee
8fff
8fff
8ggg
8ggg
8aaa
8aaa
=458
8bbb-
8bbb-
8ggg
8ggg
8eee
8eee
8ggg
8ggg
=459
8bbb-
8bbb-
8ggg
8ggg
8eee
8eee
8ggg
8ggg
=460
8bbb-
8bbb-
8ggg
8ggg
8fff
8fff
8eee
8eee
=461
1r
=462
2r
8eee
8eee
8eee
8eee
=463
8fff
8fff
8ddd
8ddd
8ccc
8ccc
8bb
8bb
=464
8ddd
8ddd
8bb
8bb
8aa
8aa
8gg#
8gg#
=465
8aa
8aa
8ff
8ff
8ee
8ee
8ee-
8ee-
=466
8ee
8ee
8ee-
8ee-
8ee
8ee
8ee
8ee
=467
2a
2r
=468
1r
=469
1r
=470
1r
=471
2r
2ccc
=472
2r
2ccc
=473
2r
2bb-
=474
2r
2bb-
=475
2aa
2r
=476
2r
2aa
=477
2r
2aa
=478
2r
4.gg#
8gg#
=479
2.aa[
8aa]
8gg#
=480
2.aa[
8aa]
8gg#
=481
2.aa[
8aa]
8bb
=482
4.ccc
8eee-
4.eee
8ggg#
=483
1aaa
=484
4ggg
4fff#
4eee
4fff#
=485
2ggg
2ddd
=486
4eee
12fff
12eee
12fff
12eee
12fff
12eee
8ddd
8eee
=487
1fff
=488
4eee
4ddd
4ccc
4ddd
=489
2eee
2aa
=490
2bb
2ee
=491
1eee[
=492
4eee]
4ddd
4ccc
4ddd
=493
2eee
2aa
=494
2bb
2ee
=495
8eee
8aaa
8aaa
8aaa
8aaa
8aaa
8aaa
8aaa
=496
8aaa
8aaa
8aaa
8aaa
8aaa
8aaa
8aaa
8aaa
=497
8aaa
8aaa
8cccc
8cccc
8aaa
8aaa
8cccc
8cccc
=498
8ggg#
8ggg#
8bbb
8bbb
8ggg#
8ggg#
8ggg#
8ggg#
=499
2aaa
2r
=500
2aa
2r
=501
8gg#
8bb
8aa#
8bb
8gg#
8bb
8ff
8bb
=502
8ee
8gg#
8dd
8gg#
8cc
8gg#
8b
8gg#
=503
2a
2r
=504
2aa
2r
=505
8gg#
8bb
8aa#
8bb
8gg#
8bb
8ff
8gg#
=506
8ee
8gg#
8dd
8gg#
8cc
8gg#
8b
8gg#
=507
8a
8aa
8a
8b
8cc
8b
8cc
8a
=508
8g#
8a
8e
8g#
8b
8ee
8dd
8b
=509
8a
8aa
8a
8b
8cc
8b
8cc
8a
=510
8g#
8a
8e
8g#
8b
8ee
8dd
8b
=511
8a
8aa
8a
8b
8cc
8b
8cc
8a
=512
8b-
8g
8e
8c
8B-
8G
8c
8B-
=513
8A
8a
8f
8g
8a
8g
8a
8f
=514
8g
8e
8c#
8A
8g
8e
8a
8g
=515
8f
8ff
8dd
8ee
8ff
8ee
8ff
8dd
=516
8ee-
8cc
8a
8f
8e-
8f
8e-
8c
=517
8A
8f
8e-
8c
8A
8f
8e-
8c
=518
8A
8f
8e-
8c
8A
8c
8e-
8a
=519
1b-
=520
1b-
=521
1b-
=522
1b-
=523
2bb-
2bb-
=524
1bb-
=525
1bb-
=526
1bb-
=527
2ddd
2ddd
=528
1ddd
=529
2ddd
2dd
=530
1dd[
=531
2dd]
2ddd[
=532
2ddd]
2dd[
=533
2dd]
2dd[
=534
4dd]
8g#
8a
8b
8cc
8dd
8ee
=535
2.ff
4a
=536
4g#
4e
4e
4g#
=537
4a
4e
4e
4a
=538
4b
4e
4e
4b
=539
4cc
4e
4cc#
4e
=540
4dd
4e
4ee-
4e
=541
4ee
4e
4f
4ff
=542
4ff#
4f#
4g
4gg
=543
4gg#
4g#
4a
4aa
=544
4b-
4bb-
4b
4bb
=545
4cc
4ccc
4cc#
4ccc#
=546
4dd
4ddd
4ee-
4eee-
=547
4ee
4eee
4ff
4fff
=548
4dd
4ddd
4ee
4eee
=549
1eee
=550
1eee
=551
2eee
4ddd
4ccc
=552
2ddd
4ccc
4bb
=553
2ccc
4bb
4ccc
=554
2ddd
2bb
=555
2ee
4dd
4cc
=556
2dd
4cc
4b
=557
2cc
4b
4a
=558
2b
4a
4g#
=559
2.a
4a
=560
2b
2g#
=561
8a
8A
8c
8A
8c
8A
8c
8A
=562
8c
8A
8c
8A
8c
8A
8c
8A
=563
8c
8A
8c
8A
8c
8A
8c
8A
=564
8c
8A
8c
8A
8c
8A
8c
8A
=565
8c
8A
8c
8A
8c
8A
8c
8A
=566
8c
8A
8c
8A
8c
8A
8c
8A
=567
8c
8A
8c
8A
8c
8A
8c
8A
=568
8c
8A
8c
8A
8c
8A
8c
8A
=569
8c
8A
8c
8A
8c
8A
8c
8A
=570
8c
8A
8c
8A
8c
8A
8c
8A
=571
8c
8A
8c
8A
8c
8A
8c
8A
=572
8c
8A
8c
8A
8c
8A
8c
8A
=573
4c
4cc
4ee
4cc
=574
2a
2r
=575
1r
=576
2r
4r
4ee
=577
1ff
=578
1cc
=579
1dd[
=580
1dd]
=581
1r
=582
1r
=583
1r
=584
2r
4r
4a
=585
8g#
8f#
8e
8f#
8g#
8a
8b
8cc
=586
8dd
8cc
8b
8ff
8ee
8dd
8cc
8b
=587
2cc
2r
=588
2r
4r
4a
=589
8g#
8f#
8e
8f#
8g#
8a
8b
8cc
=590
8dd
8cc
8b
8ff
8ee
8dd
8cc
8b
=591
2cc
2r
=592
2r
4r
4a
=593
8g#
8f#
8e
8f#
8g#
8a
8b
8cc
=594
8dd
8cc
8b
8ff
8ee
8dd
8cc
8b
=595
8cc
8a
8g
8f
8e
8f
8e
8d
=596
8c
8f
8e
8d
8c
8d
8c
8B
=597
2A
2r
=598
2aa
2aa
=599
2aa
2r
=600
2ee
2r
=601
2a
2r
==
*-
